communes/2842.svg

<?xml version="1.0" encoding="UTF-8"?>
<svg width="525" height="612" version="1.1" viewBox="0 0 350 408" xmlns="http://www.w3.org/2000/svg" xmlns:cc="http://creativecommons.org/ns#" xmlns:dc="http://purl.org/dc/elements/1.1/" xmlns:rdf="http://www.w3.org/1999/02/22-rdf-syntax-ns#">
<metadata>
<rdf:RDF>
<cc:Work rdf:about="">
<dc:format>image/svg+xml</dc:format>
<dc:type rdf:resource="http://purl.org/dc/dcmitype/StillImage"/>
</cc:Work>
</rdf:RDF>
</metadata>
<title>Wappen von Böckten</title>
<desc>Wappen der Schweizer Gemeinde Böckten, Kanton Baselland</desc>
<defs>
<clipPath id="a">
<path d="m4 4h342v229a171 171 0 0 1-342 0z"/>
</clipPath>
</defs>
<path d="m2 2h346v231a173 173 0 0 1-346 0z" fill="#fff" stroke="#000" stroke-width="4"/>
<path d="m2 69h346v67.5h-346v67.5h346v67.5h-346v67.5h346v67.5h-346z" clip-path="url(#a)" fill="#0056ad" stroke="#000" stroke-width="4"/>
</svg>

<?xml version="1.0" encoding="UTF-8" standalone="no"?>
<svg
   xmlns:dc="http://purl.org/dc/elements/1.1/"
   xmlns:cc="http://creativecommons.org/ns#"
   xmlns:rdf="http://www.w3.org/1999/02/22-rdf-syntax-ns#"
   xmlns:svg="http://www.w3.org/2000/svg"
   xmlns="http://www.w3.org/2000/svg"
   xmlns:sodipodi="http://sodipodi.sourceforge.net/DTD/sodipodi-0.dtd"
   xmlns:inkscape="http://www.inkscape.org/namespaces/inkscape"
   version="1.1"
   width="525"
   height="612"
   viewBox="0 0 350 408"
   id="svg15"
   sodipodi:docname="2842.svg">
  <metadata
     id="metadata19">
    <rdf:RDF>
      <cc:Work
         rdf:about="">
        <dc:format>image/svg+xml</dc:format>
        <dc:type
           rdf:resource="http://purl.org/dc/dcmitype/StillImage" />
      </cc:Work>
    </rdf:RDF>
  </metadata>
  <sodipodi:namedview
     pagecolor="#ffffff"
     bordercolor="#666666"
     borderopacity="1"
     objecttolerance="10"
     gridtolerance="10"
     guidetolerance="10"
     inkscape:pageopacity="0"
     inkscape:pageshadow="2"
     inkscape:window-width="640"
     inkscape:window-height="480"
     id="namedview17" />
  <title
     id="title2">Wappen von Böckten</title>
  <desc
     id="desc4">Wappen der Schweizer Gemeinde Böckten, Kanton Baselland</desc>
  <defs
     id="defs9">
    <clipPath
       id="cpSchild">
      <path
         d="M 4,4 H 346 V 233 A 171 171 0 0 1 4,233 z"
         id="path6" />
    </clipPath>
  </defs>
  <path
     d="M 2,2 h 346 V 233 A 173 173 0 0 1 2,233 z"
     stroke="black"
     stroke-width="4"
     fill="white"
     id="path11" />
  <path
     d="M 2,69 h 346 v 67.5 H 2 v 67.5 h 346 v 67.5 H 2 v 67.5 h 346 v 67.5 H 2 z"
     stroke="black"
     stroke-width="4"
     fill="#0056ad"
     clip-path="url(#cpSchild)"
     id="path13" />
</svg>
